X: 29
T:The Clumsy Lover
M:4/4
L:1/8
C:trad
R:Reel
N:Print at 100% for proper line breaks
K:A
d|:ceef edcA|dffd afdf|ceef ecBA|d2 Bc decB|!
  ceef edcA|dffd =gfed|ceec d2 GB|BAAG A3 d:|!
|:ce e a2 e cA|dAdf afdf|ce e a2 e cA|d2 Bc decB|!
   ce e a2 e cA|dAdf  =gfed|ceec d2 GB|BAAGA3 d:|!
|:ceec eece|dffd =gfed|ceec eece|dBBc decB|!
   ceec eece|dffd =gfed|ceec d2GB|BAAG A3 d:|!
|:caae aecA|daad aAda|caae aecA|dBBc decB|!
   caae aecA|daad aAda|ceec d2 GB|BAAG A3 d:|!
|:ceec e2 ce|d2 f =g2 f ed|ceec e2 Ae|dBBc decB|!
 ceec e2 Ae|d2 f =g2 f ed|ceec d2 GB|BAAG A3 d:|!
|:caac aaca|daad aada|caac aaca|cada eaBa|!
   caac aaca|daad aada|ceec d2 GB|BAAG A3 d:|

